X: 26051
T: McCahill's
R: reel
M: 4/4
K: Dmajor
d3 A BdAF|EFGA B E3|A d3 fdAF|GBAG FDDc|dDcD BDAF|
EFGA B E3|A d3 fdAF|GBAG FDDA||BA^GB AFDA|B3 D ABcd|
A BA^GB AFDF|GA,FA, EFGA|BA^GB AFDA|B3 D ABcd|A BA^GB AFDF|
GA,FA, EFGB||e2 ^ge bege|Be^ge fgaf|e2 ^ge bege|
A2 =ge fecf|e2 ^ge bege|Be^ge fgaf|e2 ^ge bege|A2 =ge feAc||

